images/logo.svg

<svg id="Layer_4" xmlns="http://www.w3.org/2000/svg" viewBox="0 0 839 200"><style>.st0{fill:none;} .st1{fill:#FFC107;} .st2{fill:#0F9D58;} .st3{opacity:0.2;fill:#BF360C;enable-background:new ;} .st4{opacity:0.2;fill:#263238;enable-background:new ;} .st5{opacity:0.2;fill:#FFFFFF;enable-background:new ;} .st6{fill:url(#XMLID_126_);} .st7{fill:url(#XMLID_127_);} .st8{fill:#4285F4;} .st9{fill:#DB4437;} .st10{opacity:0.2;fill:#1A237E;enable-background:new ;} .st11{opacity:0.2;fill:#3E2723;enable-background:new ;} .st12{fill:url(#XMLID_128_);} .st13{fill:#767676;}</style><g id="XMLID_60_"><g id="XMLID_61_"><g id="XMLID_62_"><path id="XMLID_106_" class="st0" d="M122.5 90.6L70.1 0H0l57.8 100L0 200h70.1l52.4-90.6c3.3-5.8 3.3-13 0-18.8z"/><path id="XMLID_105_" class="st1" d="M92.4 159.8l-16.6-28.7L35.9 200h34.2l22.8-39.4z"/><path id="XMLID_104_" class="st0" d="M122.5 90.6L70.1 0H0l57.8 100L0 200h70.1l52.4-90.6c3.3-5.8 3.3-13 0-18.8z"/><path id="XMLID_103_" class="st2" d="M57.8 100l18 31.1L35.9 200H0z"/><path id="XMLID_102_" class="st0" d="M122.5 90.6L70.1 0H0l57.8 100L0 200h70.1l52.4-90.6c3.3-5.8 3.3-13 0-18.8z"/><path id="XMLID_101_" class="st3" d="M70.1 198.4H36.8l-.9 1.6h34.2l22.8-39.4-.5-.8z"/><path id="XMLID_100_" class="st0" d="M122.5 90.6L70.1 0H0l57.8 100L0 200h70.1l52.4-90.6c3.3-5.8 3.3-13 0-18.8z"/><path id="XMLID_99_" class="st4" d="M.9 198.4L0 200h35.9l.9-1.6z"/><path id="XMLID_98_" class="st0" d="M122.5 90.6L70.1 0H0l57.8 100L0 200h70.1l52.4-90.6c3.3-5.8 3.3-13 0-18.8z"/><path id="XMLID_96_" class="st5" d="M0 200h.9l57.4-99.2-.5-.8z"/><path id="XMLID_94_" class="st0" d="M122.5 90.6L70.1 0H0l57.8 100L0 200h70.1l52.4-90.6c3.3-5.8 3.3-13 0-18.8z"/><radialGradient id="XMLID_126_" cx="92.62" cy="2707.501" r="69.162" gradientTransform="matrix(1 0 0 -1 0 2867.46)" gradientUnits="userSpaceOnUse"><stop offset="0" stop-color="#BF360C" stop-opacity=".2"/><stop offset="1" stop-color="#BF360C" stop-opacity=".02"/></radialGradient><path id="XMLID_92_" class="st6" d="M92.9 160.6l-17.1-29.5-4.2 7.2z"/><path id="XMLID_90_" class="st0" d="M122.5 90.6L70.1 0H0l57.8 100L0 200h70.1l52.4-90.6c3.3-5.8 3.3-13 0-18.8z"/><radialGradient id="XMLID_127_" cx="92.423" cy="2707.063" r="69.723" gradientTransform="matrix(1 0 0 -1 0 2867.46)" gradientUnits="userSpaceOnUse"><stop offset="0" stop-color="#263238" stop-opacity=".2"/><stop offset="1" stop-color="#263238" stop-opacity=".02"/></radialGradient><path id="XMLID_89_" class="st7" d="M71.6 138.3l4.2-7.2-18-31.1-8.5 14.8z"/><path id="XMLID_88_" class="st0" d="M122.5 90.6L70.1 0H0l57.8 100L0 200h70.1l52.4-90.6c3.3-5.8 3.3-13 0-18.8z"/><g id="XMLID_85_"><g id="XMLID_86_"><path id="XMLID_87_" class="st8" d="M35.9 0H0l92.9 160.6 17.9-31.1z"/></g></g><path id="XMLID_84_" class="st0" d="M122.5 90.6L70.1 0H0l57.8 100L0 200h70.1l52.4-90.6c3.3-5.8 3.3-13 0-18.8z"/><path id="XMLID_83_" class="st9" d="M122.5 109.4c3.4-5.8 3.4-13 0-18.8L70.1 0H35.9l74.9 129.5 11.7-20.1z"/><path id="XMLID_82_" class="st0" d="M122.5 90.6L70.1 0H0l57.8 100L0 200h70.1l52.4-90.6c3.3-5.8 3.3-13 0-18.8z"/><path id="XMLID_71_" class="st10" d="M110.8 129.5l-.4-.8L92.9 159 .9 0H0l92.9 160.6 17.9-31.1z"/><path id="XMLID_69_" class="st0" d="M122.5 90.6L70.1 0H0l57.8 100L0 200h70.1l52.4-90.6c3.3-5.8 3.3-13 0-18.8z"/><path id="XMLID_67_" class="st5" d="M70.1 1.6l52.4 90.6c1.5 2.7 2.3 5.6 2.5 8.6.1-3.5-.7-7-2.5-10.2L70.1 0H0l.9 1.6h69.2z"/><path id="XMLID_66_" class="st0" d="M122.5 90.6L70.1 0H0l57.8 100L0 200h70.1l52.4-90.6c3.3-5.8 3.3-13 0-18.8z"/><path id="XMLID_65_" class="st11" d="M110.8 129.5l11.6-20.1c1.8-3.1 2.6-6.7 2.5-10.2-.1 3-.9 5.9-2.5 8.6l-12.1 20.9.5.8z"/><path id="XMLID_64_" class="st0" d="M122.5 90.6L70.1 0H0l57.8 100L0 200h70.1l52.4-90.6c3.3-5.8 3.3-13 0-18.8z"/><radialGradient id="XMLID_128_" cx="-1.563" cy="2865.898" r="209.922" gradientTransform="matrix(1 0 0 -1 0 2867.46)" gradientUnits="userSpaceOnUse"><stop offset="0" stop-color="#FFF" stop-opacity=".1"/><stop offset="1" stop-color="#FFF" stop-opacity="0"/></radialGradient><path id="XMLID_63_" class="st12" d="M122.5 90.6L70.1 0H0l57.8 100L0 200h70.1l52.4-90.6c3.3-5.8 3.3-13 0-18.8z"/></g></g></g><g id="XMLID_7_"><path id="XMLID_2_" class="st13" d="M275.5 51.8c0 10.9-3.2 19.7-9.7 26.1-7.4 7.7-17 11.6-28.8 11.6-11.3 0-20.9-3.9-28.8-11.8-7.9-7.8-11.9-17.6-11.9-29.1s4-21.3 11.9-29.1c7.9-7.8 17.5-11.8 28.8-11.8 5.6 0 11 1.1 16.1 3.3 5.1 2.2 9.2 5.1 12.2 8.8l-6.9 6.9c-5.2-6.2-12.3-9.3-21.4-9.3-8.2 0-15.4 2.9-21.4 8.7-6 5.8-9 13.3-9 22.6s3 16.8 9 22.6c6 5.8 13.1 8.7 21.4 8.7 8.8 0 16-2.9 21.9-8.8 3.8-3.8 6-9.1 6.6-15.9H237v-9.4h38c.3 2.1.5 4 .5 5.9z"/><path id="XMLID_4_" class="st13" d="M285.4 87.8V9.5h24c12 0 21.7 3.6 28.9 10.9 7.2 7.3 10.8 16.7 10.8 28.3s-3.6 21-10.8 28.3c-7.2 7.3-16.8 10.9-28.9 10.9h-24zm10.1-9.6h13.9c9 0 16.2-2.6 21.5-7.8 5.3-5.2 7.9-12.4 7.9-21.8 0-9.3-2.6-16.5-7.9-21.7-5.3-5.2-12.5-7.8-21.5-7.8h-13.9v59.1z"/><path id="XMLID_8_" class="st13" d="M434.5 51.8c0 10.9-3.2 19.7-9.7 26.1-7.4 7.7-17 11.6-28.8 11.6-11.3 0-20.9-3.9-28.8-11.8-7.9-7.8-11.9-17.6-11.9-29.1s4-21.3 11.9-29.1c7.9-7.8 17.5-11.8 28.8-11.8 5.6 0 11 1.1 16.1 3.3 5.1 2.2 9.2 5.1 12.2 8.8l-6.9 6.9c-5.2-6.2-12.3-9.3-21.4-9.3-8.2 0-15.4 2.9-21.4 8.7-6 5.8-9 13.3-9 22.6s3 16.8 9 22.6c6 5.8 13.1 8.7 21.4 8.7 8.8 0 16-2.9 21.9-8.8 3.8-3.8 6-9.1 6.6-15.9H396v-9.4h38c.3 2.1.5 4 .5 5.9z"/><path id="XMLID_10_" class="st13" d="M470.8 87.8V9.5h24c12 0 21.7 3.6 28.9 10.9 7.2 7.3 10.8 16.7 10.8 28.3s-3.6 21-10.8 28.3c-7.2 7.3-16.8 10.9-28.9 10.9h-24zm10.1-9.6h13.9c9 0 16.2-2.6 21.5-7.8 5.3-5.2 7.9-12.4 7.9-21.8 0-9.3-2.6-16.5-7.9-21.7-5.3-5.2-12.5-7.8-21.5-7.8h-13.9v59.1z"/><path id="XMLID_13_" class="st13" d="M567.4 89.6c-8.1 0-14.7-2.7-19.7-8.1-5.1-5.4-7.6-12.2-7.6-20.5 0-7.8 2.5-14.5 7.4-20.1 4.9-5.6 11.2-8.4 18.9-8.4 7.9 0 14.3 2.6 19.1 7.8 4.8 5.2 7.2 12.1 7.2 20.8l-.1 1.9h-42.3c.3 5.4 2.1 9.7 5.4 12.8 3.3 3.1 7.2 4.7 11.6 4.7 7.2 0 12.1-3.1 14.7-9.2l9 3.7c-1.8 4.2-4.6 7.6-8.6 10.4-4.2 2.8-9.1 4.2-15 4.2zm14.5-35c-.2-3.1-1.6-6-4.2-8.8-2.6-2.8-6.4-4.2-11.5-4.2-3.7 0-6.9 1.2-9.7 3.5-2.7 2.3-4.6 5.5-5.6 9.4h31z"/><path id="XMLID_16_" class="st13" d="M613.7 87.8L592 34.2h11l15.8 41.6h.2l16-41.6h10.7l-21.9 53.6h-10.1z"/><path id="XMLID_18_" class="st13" d="M661.6 87.8h-10.1V9.5h45.7v9.6h-35.7v25.7h32.2v9.4h-32.2v33.6z"/><path id="XMLID_20_" class="st13" d="M727.7 89.6c-8.1 0-14.7-2.7-19.7-8.1-5.1-5.4-7.6-12.2-7.6-20.5 0-7.8 2.5-14.5 7.4-20.1 4.9-5.6 11.2-8.4 18.9-8.4 7.9 0 14.3 2.6 19.1 7.8 4.8 5.2 7.2 12.1 7.2 20.8l-.1 1.9h-42.3c.3 5.4 2.1 9.7 5.4 12.8 3.3 3.1 7.2 4.7 11.6 4.7 7.2 0 12.1-3.1 14.7-9.2l9 3.7c-1.8 4.2-4.6 7.6-8.6 10.4-4.3 2.8-9.2 4.2-15 4.2zm14.4-35c-.2-3.1-1.6-6-4.2-8.8-2.6-2.8-6.4-4.2-11.5-4.2-3.7 0-6.9 1.2-9.7 3.5-2.7 2.3-4.6 5.5-5.6 9.4h31z"/><path id="XMLID_27_" class="st13" d="M779.5 89.6c-6 0-10.9-1.5-14.8-4.4-3.9-2.9-6.8-6.6-8.6-10.9l9-3.7c2.8 6.7 7.7 10.1 14.5 10.1 3.1 0 5.7-.7 7.7-2.1 2-1.4 3-3.2 3-5.5 0-3.5-2.4-5.9-7.3-7.1l-10.8-2.6c-3.4-.9-6.7-2.5-9.7-5-3.1-2.4-4.6-5.7-4.6-9.9 0-4.7 2.1-8.6 6.3-11.5 4.2-3 9.2-4.4 14.9-4.4 4.7 0 9 1.1 12.7 3.2 3.7 2.2 6.4 5.2 8 9.2l-8.8 3.6c-2-4.7-6.1-7.1-12.2-7.1-3 0-5.5.6-7.5 1.9-2 1.2-3.1 2.9-3.1 5 0 3.1 2.4 5.1 7.1 6.2l10.6 2.5c5 1.2 8.8 3.2 11.2 6 2.4 2.8 3.6 6.1 3.6 9.6 0 4.8-2 8.8-5.9 12-4 3.3-9.1 4.9-15.3 4.9z"/><path id="XMLID_29_" class="st13" d="M830.9 88.7c-5.6 0-9.9-1.5-12.9-4.5s-4.4-7.2-4.4-12.7V43.4h-9.4v-9.2h9.4V17.8h10.1v16.4h13.1v9.2h-13.1v27.3c0 5.8 2.4 8.8 7.2 8.8 1.8 0 3.4-.3 4.6-.9l3.5 8.6c-2.2 1-4.9 1.5-8.1 1.5z"/><path id="XMLID_31_" class="st13" d="M222.2 192.7c-5.7 0-11.2-1.9-16.7-5.6-5.4-3.7-9-8.9-10.7-15.6l9.2-3.7c1.1 4.3 3.3 7.9 6.7 10.9 3.4 3 7.2 4.4 11.4 4.4 4.4 0 8.1-1.1 11.2-3.4 3.1-2.3 4.6-5.4 4.6-9.4 0-4.4-1.6-7.7-4.6-10.1-3.1-2.4-8-4.6-14.7-6.6-6.9-2.2-12.2-5-15.8-8.5-3.6-3.5-5.4-7.9-5.4-13.3 0-5.6 2.2-10.5 6.7-14.7 4.4-4.2 10.2-6.2 17.4-6.2 6.6 0 12 1.7 16.2 5 4.2 3.3 6.9 6.9 8.1 10.9l-9.2 3.8c-.7-2.5-2.3-4.8-4.9-6.9-2.6-2.1-5.9-3.2-10-3.2-3.9 0-7.2 1.1-9.9 3.2-2.7 2.2-4.1 4.8-4.1 8 0 2.9 1.3 5.4 3.8 7.4s6.2 3.8 11.1 5.4c3.9 1.2 7.1 2.4 9.7 3.6 2.6 1.2 5.2 2.7 7.9 4.6 2.7 1.9 4.7 4.3 6 7.2 1.3 2.9 2 6.2 2 10s-.8 7.2-2.4 10.2c-1.6 3-3.6 5.4-6.2 7.1-2.6 1.8-5.4 3.1-8.4 4-2.8 1-5.9 1.5-9 1.5z"/><path id="XMLID_33_" class="st13" d="M281.4 192.7c-8.1 0-14.7-2.7-19.7-8.1-5.1-5.4-7.6-12.2-7.6-20.5 0-7.8 2.5-14.5 7.4-20.1 4.9-5.6 11.2-8.4 18.9-8.4 7.9 0 14.3 2.6 19.1 7.8 4.8 5.2 7.2 12.1 7.2 20.8l-.1 1.9h-42.3c.3 5.4 2.1 9.7 5.4 12.8 3.3 3.1 7.2 4.7 11.6 4.7 7.2 0 12.1-3.1 14.7-9.2l9 3.7c-1.8 4.2-4.6 7.6-8.6 10.4-4.3 2.8-9.2 4.2-15 4.2zm14.4-35c-.2-3.1-1.6-6-4.2-8.8-2.6-2.8-6.4-4.2-11.5-4.2-3.7 0-6.9 1.2-9.7 3.5-2.7 2.3-4.6 5.5-5.6 9.4h31z"/><path id="XMLID_36_" class="st13" d="M330.3 192.7c-5.7 0-10.4-1.6-14.3-4.9-3.8-3.3-5.7-7.6-5.7-13 0-5.8 2.3-10.4 6.8-13.7 4.5-3.3 10.1-5 16.7-5 5.9 0 10.8 1.1 14.5 3.3v-1.5c0-3.9-1.3-7.1-4-9.5-2.7-2.4-6-3.6-10-3.6-2.9 0-5.6.7-7.9 2.1-2.4 1.4-4 3.3-4.9 5.7l-9.2-3.9c1.2-3.2 3.7-6.2 7.3-8.9 3.6-2.7 8.5-4.1 14.4-4.1 6.9 0 12.5 2 17.1 6 4.5 4 6.8 9.7 6.8 17v32.4h-9.6v-7.4h-.4c-4 5.9-9.9 9-17.6 9zm1.7-9.2c4.2 0 7.9-1.5 11.3-4.6 3.4-3.1 5.1-6.8 5.1-11-2.8-2.3-7.1-3.5-12.8-3.5-4.9 0-8.6 1.1-11 3.2-2.5 2.1-3.7 4.6-3.7 7.4 0 2.6 1.1 4.7 3.4 6.2 2.2 1.5 4.7 2.3 7.7 2.3z"/><path id="XMLID_39_" class="st13" d="M387 192.7c-6 0-10.9-1.5-14.8-4.4-3.9-2.9-6.8-6.6-8.6-10.9l9-3.7c2.8 6.7 7.7 10.1 14.5 10.1 3.1 0 5.7-.7 7.7-2.1 2-1.4 3-3.2 3-5.5 0-3.5-2.4-5.9-7.3-7.1l-10.8-2.6c-3.4-.9-6.7-2.5-9.7-5-3.1-2.4-4.6-5.7-4.6-9.9 0-4.7 2.1-8.6 6.3-11.5 4.2-3 9.2-4.4 14.9-4.4 4.7 0 9 1.1 12.7 3.2 3.7 2.2 6.4 5.2 8 9.2l-8.8 3.6c-2-4.7-6.1-7.1-12.2-7.1-3 0-5.5.6-7.5 1.9-2 1.2-3.1 2.9-3.1 5 0 3.1 2.4 5.1 7.1 6.2l10.6 2.5c5 1.2 8.7 3.2 11.2 6 2.4 2.8 3.6 6.1 3.6 9.6 0 4.8-2 8.8-5.9 12-4.1 3.3-9.1 4.9-15.3 4.9z"/><path id="XMLID_41_" class="st13" d="M419.7 143.7c5.2-5.4 11.8-8.1 19.8-8.1s14.6 2.7 19.8 8.1c5.2 5.4 7.8 12.2 7.8 20.4s-2.6 15-7.8 20.4c-5.2 5.4-11.8 8.1-19.8 8.1s-14.6-2.7-19.8-8.1c-5.2-5.4-7.8-12.2-7.8-20.4 0-8.1 2.6-14.9 7.8-20.4zm7.5 34.5c3.5 3.5 7.6 5.3 12.3 5.3 4.7 0 8.8-1.8 12.3-5.3s5.2-8.2 5.2-14.1c0-5.8-1.7-10.5-5.2-14.1-3.5-3.5-7.6-5.3-12.3-5.3-4.7 0-8.8 1.8-12.3 5.3s-5.2 8.2-5.2 14.1 1.7 10.6 5.2 14.1z"/><path id="XMLID_44_" class="st13" d="M483.8 137.3v7.4h.4c1.5-2.6 3.8-4.7 6.9-6.5 3.1-1.8 6.5-2.7 10.1-2.7 6.6 0 11.7 2 15.2 6.1s5.2 9.6 5.2 16.4v32.8h-10.1v-31.3c0-9.9-4.4-14.9-13.2-14.9-4.2 0-7.5 1.7-10.2 5-2.6 3.3-3.9 7.2-3.9 11.5v29.6h-10.1v-53.6h9.7z"/><path id="XMLID_46_" class="st13" d="M603.5 190.9h-47.7v-10.1c14.3-14.4 23.4-23.7 27.5-28.1 3.6-4 6-7.1 7.2-9.1 1.2-2.1 1.9-4.6 1.9-7.7 0-3.1-1.2-5.9-3.7-8.3-2.5-2.4-5.8-3.6-10-3.6-3.8 0-6.9 1.1-9.2 3.3-2.3 2.2-3.8 4.6-4.5 7.2l-9.2-3.7c1.2-3.9 3.8-7.7 7.8-11.2 3.9-3.5 9-5.2 15.3-5.2 6.9 0 12.6 2.1 17.1 6.3 4.4 4.2 6.7 9.3 6.7 15.2 0 7.3-4 15.1-11.9 23.4l-21.9 22h34.7v9.6z"/><path id="XMLID_48_" class="st13" d="M661.1 181.4c-5.5 7.5-12.8 11.3-21.8 11.3s-16.2-3.8-21.8-11.3c-5.5-7.5-8.3-16.8-8.3-27.9 0-11.2 2.8-20.5 8.3-27.9 5.5-7.5 12.8-11.2 21.8-11.2s16.2 3.7 21.8 11.2c5.5 7.5 8.3 16.8 8.3 27.9 0 11.1-2.8 20.4-8.3 27.9zm-21.8 1.7c6 0 10.8-2.8 14.4-8.4 3.6-5.6 5.4-12.6 5.4-21.1 0-8.5-1.8-15.6-5.4-21.2-3.6-5.6-8.4-8.4-14.4-8.4-6.1 0-10.9 2.8-14.4 8.4-3.6 5.6-5.4 12.6-5.4 21.2 0 8.5 1.8 15.5 5.4 21.1 3.6 5.6 8.4 8.4 14.4 8.4z"/><path id="XMLID_51_" class="st13" d="M701.3 190.9h-10.1v-62.3l-14.5 6.3-3.8-8.5 22-10.3h6.5v74.8z"/><path id="XMLID_53_" class="st13" d="M739.5 143.1c5.8 0 11.2 2.4 16.1 7.2 4.9 4.8 7.3 10.6 7.3 17.3 0 6.6-2.5 12.5-7.6 17.5s-11.1 7.5-18 7.5c-7.4 0-13.6-2.5-18.4-7.6-4.9-5.1-7.3-10.9-7.3-17.4 0-6.9 2.9-14.7 8.8-23.2l20.3-30.1 8.1 5.6-17.8 24.7.2.2c1.8-1.1 4.5-1.7 8.3-1.7zm-2.2 39.8c4.2 0 7.9-1.5 10.9-4.4 3-2.9 4.5-6.5 4.5-10.8 0-4.2-1.5-7.8-4.5-10.8-3-3-6.7-4.4-10.9-4.4s-7.9 1.5-10.9 4.4c-3.1 3-4.6 6.5-4.6 10.8 0 4.3 1.5 7.9 4.5 10.8 3 3 6.7 4.4 11 4.4z"/></g></svg>

<?xml version="1.0" standalone="no"?><!-- Generator: Gravit.io --><svg xmlns="http://www.w3.org/2000/svg" xmlns:xlink="http://www.w3.org/1999/xlink" style="isolation:isolate" viewBox="0 0 839 200" width="839" height="200"><defs><clipPath id="_clipPath_LbJax7VmXcplBmmbebKh5PJzpXX5R7YO"><rect width="839" height="200"/></clipPath></defs><g clip-path="url(#_clipPath_LbJax7VmXcplBmmbebKh5PJzpXX5R7YO)"><clipPath id="_clipPath_F7ncgFfBHIefC6QV9BhLalmUajlQhxjy"><rect x="0" y="0" width="839" height="200" transform="matrix(1,0,0,1,0,0)" fill="rgb(255,255,255)"/></clipPath><g clip-path="url(#_clipPath_F7ncgFfBHIefC6QV9BhLalmUajlQhxjy)"><g id="Group"><clipPath id="_clipPath_i1tgdToqRlG17u1dMqU2BG6XFQKsOu90"><rect x="0" y="0" width="839" height="200" transform="matrix(1,0,0,1,0,0)" fill="rgb(255,255,255)"/></clipPath><g clip-path="url(#_clipPath_i1tgdToqRlG17u1dMqU2BG6XFQKsOu90)"><g id="Group"><g id="Group"><g id="XMLID_60_"><g id="XMLID_61_"><g id="XMLID_62_"><path d=" M 122.5 90.6 L 70.1 0 L 0 0 L 57.8 100 L 0 200 L 70.1 200 L 122.5 109.4 C 125.8 103.6 125.8 96.4 122.5 90.6 L 122.5 90.6 L 122.5 90.6 L 122.5 90.6 Z " fill="none"/><path d=" M 92.4 159.8 L 75.8 131.1 L 35.9 200 L 70.1 200 L 92.9 160.6 L 92.4 159.8 L 92.4 159.8 L 92.4 159.8 Z " fill="rgb(255,193,7)"/><path d=" M 122.5 90.6 L 70.1 0 L 0 0 L 57.8 100 L 0 200 L 70.1 200 L 122.5 109.4 C 125.8 103.6 125.8 96.4 122.5 90.6 L 122.5 90.6 L 122.5 90.6 L 122.5 90.6 Z " fill="none"/><path d=" M 57.8 100 L 75.8 131.1 L 35.9 200 L 0 200 L 57.8 100 L 57.8 100 L 57.8 100 Z " fill="rgb(15,157,88)"/><path d=" M 122.5 90.6 L 70.1 0 L 0 0 L 57.8 100 L 0 200 L 70.1 200 L 122.5 109.4 C 125.8 103.6 125.8 96.4 122.5 90.6 L 122.5 90.6 L 122.5 90.6 L 122.5 90.6 Z " fill="none"/><g id="Group" style="opacity:0.2;"><g id="Group" style="opacity:0.2;"><g opacity="0.2"><path d=" M 70.1 198.4 L 36.8 198.4 L 35.9 200 L 70.1 200 L 92.9 160.6 L 92.4 159.8 L 70.1 198.4 L 70.1 198.4 L 70.1 198.4 Z " fill="rgb(191,54,12)"/></g></g></g><path d=" M 122.5 90.6 L 70.1 0 L 0 0 L 57.8 100 L 0 200 L 70.1 200 L 122.5 109.4 C 125.8 103.6 125.8 96.4 122.5 90.6 L 122.5 90.6 L 122.5 90.6 L 122.5 90.6 Z " fill="none"/><g id="Group" style="opacity:0.2;"><g id="Group" style="opacity:0.2;"><g opacity="0.2"><path d=" M 0.9 198.4 L 0 200 L 35.9 200 L 36.8 198.4 L 0.9 198.4 L 0.9 198.4 L 0.9 198.4 Z " fill="rgb(38,50,56)"/></g></g></g><path d=" M 122.5 90.6 L 70.1 0 L 0 0 L 57.8 100 L 0 200 L 70.1 200 L 122.5 109.4 C 125.8 103.6 125.8 96.4 122.5 90.6 L 122.5 90.6 L 122.5 90.6 L 122.5 90.6 Z " fill="none"/><g id="Group" style="opacity:0.2;"><g id="Group" style="opacity:0.2;"><g opacity="0.2"><path d=" M 0 200 L 0.9 200 L 58.3 100.8 L 57.8 100 L 0 200 L 0 200 L 0 200 Z " fill="rgb(255,255,255)"/></g></g></g><path d=" M 122.5 90.6 L 70.1 0 L 0 0 L 57.8 100 L 0 200 L 70.1 200 L 122.5 109.4 C 125.8 103.6 125.8 96.4 122.5 90.6 L 122.5 90.6 L 122.5 90.6 L 122.5 90.6 Z " fill="none"/><radialGradient id="_rgradient_27" fx="98.68544600938964%" fy="97.82711864406721%" cx="98.68544600938964%" cy="97.82711864406721%" r="30.797258610219476%" gradientTransform="matrix(-1 0 0 -1 0 0)"><stop offset="0%" stop-opacity="0.2" style="stop-color:rgb(191,54,12)"/><stop offset="100%" stop-opacity="0.02" style="stop-color:rgb(191,54,12)"/></radialGradient><path d=" M 92.9 160.6 L 75.8 131.1 L 71.6 138.3 L 92.9 160.6 L 92.9 160.6 L 92.9 160.6 Z " fill="url(#_rgradient_27)"/><path d=" M 122.5 90.6 L 70.1 0 L 0 0 L 57.8 100 L 0 200 L 70.1 200 L 122.5 109.4 C 125.8 103.6 125.8 96.4 122.5 90.6 L 122.5 90.6 L 122.5 90.6 L 122.5 90.6 Z " fill="none"/><radialGradient id="_rgradient_28" fx="162.72830188679248%" fy="157.6945169712792%" cx="162.72830188679248%" cy="157.6945169712792%" r="38.00754413894985%" gradientTransform="matrix(-1 0 0 -1 0 0)"><stop offset="0%" stop-opacity="0.2" style="stop-color:rgb(38,50,56)"/><stop offset="100%" stop-opacity="0.02" style="stop-color:rgb(38,50,56)"/></radialGradient><path d=" M 71.6 138.3 L 75.8 131.1 L 57.8 100 L 49.3 114.8 L 71.6 138.3 L 71.6 138.3 L 71.6 138.3 Z " fill="url(#_rgradient_28)"/><path d=" M 122.5 90.6 L 70.1 0 L 0 0 L 57.8 100 L 0 200 L 70.1 200 L 122.5 109.4 C 125.8 103.6 125.8 96.4 122.5 90.6 L 122.5 90.6 L 122.5 90.6 L 122.5 90.6 Z " fill="none"/><g id="XMLID_85_"><g id="XMLID_86_"><path d=" M 35.9 0 L 0 0 L 92.9 160.6 L 110.8 129.5 L 35.9 0 L 35.9 0 L 35.9 0 Z " fill="rgb(66,133,244)"/></g></g><path d=" M 122.5 90.6 L 70.1 0 L 0 0 L 57.8 100 L 0 200 L 70.1 200 L 122.5 109.4 C 125.8 103.6 125.8 96.4 122.5 90.6 L 122.5 90.6 L 122.5 90.6 L 122.5 90.6 Z " fill="none"/><path d=" M 122.5 109.4 C 125.9 103.6 125.9 96.4 122.5 90.6 L 70.1 0 L 35.9 0 L 110.8 129.5 L 122.5 109.4 L 122.5 109.4 L 122.5 109.4 L 122.5 109.4 Z " fill="rgb(219,68,55)"/><path d=" M 122.5 90.6 L 70.1 0 L 0 0 L 57.8 100 L 0 200 L 70.1 200 L 122.5 109.4 C 125.8 103.6 125.8 96.4 122.5 90.6 L 122.5 90.6 L 122.5 90.6 L 122.5 90.6 Z " fill="none"/><g id="Group" style="opacity:0.2;"><g id="Group" style="opacity:0.2;"><g opacity="0.2"><path d=" M 110.8 129.5 L 110.4 128.7 L 92.9 159 L 0.9 0 L 0 0 L 92.9 160.6 L 110.8 129.5 L 110.8 129.5 L 110.8 129.5 L 110.8 129.5 Z " fill="rgb(26,35,126)"/></g></g></g><path d=" M 122.5 90.6 L 70.1 0 L 0 0 L 57.8 100 L 0 200 L 70.1 200 L 122.5 109.4 C 125.8 103.6 125.8 96.4 122.5 90.6 L 122.5 90.6 L 122.5 90.6 L 122.5 90.6 Z " fill="none"/><g id="Group" style="opacity:0.2;"><g id="Group" style="opacity:0.2;"><g opacity="0.2"><path d=" M 70.1 1.6 L 122.5 92.2 C 124 94.9 124.8 97.8 125 100.8 C 125.1 97.3 124.3 93.8 122.5 90.6 L 70.1 0 L 0 0 L 0.9 1.6 L 70.1 1.6 L 70.1 1.6 L 70.1 1.6 L 70.1 1.6 Z " fill="rgb(255,255,255)"/></g></g></g><path d=" M 122.5 90.6 L 70.1 0 L 0 0 L 57.8 100 L 0 200 L 70.1 200 L 122.5 109.4 C 125.8 103.6 125.8 96.4 122.5 90.6 L 122.5 90.6 L 122.5 90.6 L 122.5 90.6 Z " fill="none"/><g id="Group" style="opacity:0.2;"><g id="Group" style="opacity:0.2;"><g opacity="0.2"><path d=" M 110.8 129.5 L 122.4 109.4 C 124.2 106.3 125 102.7 124.9 99.2 C 124.8 102.2 124 105.1 122.4 107.8 L 110.3 128.7 L 110.8 129.5 L 110.8 129.5 L 110.8 129.5 L 110.8 129.5 Z " fill="rgb(62,39,35)"/></g></g></g><path d=" M 122.5 90.6 L 70.1 0 L 0 0 L 57.8 100 L 0 200 L 70.1 200 L 122.5 109.4 C 125.8 103.6 125.8 96.4 122.5 90.6 L 122.5 90.6 L 122.5 90.6 L 122.5 90.6 Z " fill="none"/><radialGradient id="_rgradient_29" fx="-1.2506501300260051%" fy="0.780999999999949%" cx="-1.2506501300260051%" cy="0.780999999999949%" r="59.53401739693791%" gradientTransform="matrix(-1 0 0 -1 0 0)"><stop offset="0%" stop-opacity="0.1" style="stop-color:rgb(255,255,255)"/><stop offset="100%" stop-opacity="0" style="stop-color:rgb(255,255,255)"/></radialGradient><path d=" M 122.5 90.6 L 70.1 0 L 0 0 L 57.8 100 L 0 200 L 70.1 200 L 122.5 109.4 C 125.8 103.6 125.8 96.4 122.5 90.6 L 122.5 90.6 L 122.5 90.6 L 122.5 90.6 Z " fill="url(#_rgradient_29)"/></g></g></g><g id="Group"><g id="Group"><g transform="matrix(1,0,0,1,141.682,35)"><text transform="matrix(1,0,0,1,0,60.328)" style="font-family:&quot;Gregory Packaging&quot;;font-weight:400;font-size:72px;font-style:normal;fill:#FFFFFF;stroke:none;">GDG dEVFEST             </text></g></g><g id="Group"><g transform="matrix(1,0,0,1,287,112.953)"><text transform="matrix(1,0,0,1,0,60.328)" style="font-family:&quot;Gregory Packaging&quot;;font-weight:400;font-size:72px;font-style:normal;fill:#FFFFFF;stroke:none;">GHANA 2017</text></g></g></g></g></g></g></g></g></g></svg>
